<?xml version="1.0" encoding="UTF-8"?>
<map version="1.10" tiledversion="1.12.1" orientation="orthogonal" renderorder="right-down" width="20" height="20" tilewidth="32" tileheight="32" infinite="0" nextlayerid="5" nextobjectid="118">
 <tileset firstgid="1" source="Hospital_Black_Shadow_SIngles_32x32.tsx"/>
 <tileset firstgid="433" source="Room_Builder_32x32.tsx"/>
 <tileset firstgid="9021" source="19_Hospital_Black_Shadow_32x32.tsx"/>
 <layer id="1" name="Suelo" width="20" height="20">
  <data encoding="csv">
0,3673,3673,3673,3673,3673,3673,3673,3673,3673,3673,3673,3673,3673,3673,3673,3673,3673,3673,0,
0,3673,3673,3673,3673,3673,3673,3673,3673,3673,3673,3673,3673,3673,3673,3673,3673,3673,3673,0,
0,3673,3673,3673,3673,3673,3673,3673,3673,3673,3673,3673,3673,3673,3673,3673,3673,3673,3673,0,
0,3673,3673,3673,3673,3673,3673,3673,3673,3673,3673,3673,3673,3673,3673,3673,3673,3673,3673,0,
0,3673,3673,3673,3673,3673,3673,3673,3673,3673,3673,3673,3673,3673,3673,3673,3673,3673,3673,0,
0,3673,3673,3673,3673,3673,3673,3673,3673,3673,3673,3673,3673,3673,3673,3673,3673,3673,3673,0,
0,3673,3673,3673,3673,3673,3673,3673,3673,3673,3673,3673,3673,3673,3673,3673,3673,3673,3673,0,
0,3673,3673,3673,3673,3673,3673,3673,3673,3673,3673,3673,3673,3673,3673,3673,3673,3673,3673,0,
0,3673,3673,3673,3673,3673,3673,3673,3673,3673,3673,3673,3673,3673,3673,3673,3673,3673,3673,0,
0,3673,3673,3673,3673,3673,3673,3673,3673,3673,3673,3673,3673,3673,3673,3673,3673,3673,3673,0,
0,3673,3673,3673,3673,3673,3673,3673,3673,3673,3673,0,0,0,0,0,0,0,0,0,
0,3673,3673,3673,3673,3673,3673,3673,3673,3673,3673,0,0,3673,3673,3673,3673,3673,3673,0,
0,3673,3673,3673,3673,3673,3673,3673,3673,3673,3673,3673,3673,3673,3673,3673,3673,3673,3673,0,
0,3673,3673,3673,3673,3673,3673,3673,3673,3673,3673,3673,3673,3673,3673,3673,3673,3673,3673,0,
0,3673,3673,3673,3673,3673,3673,3673,3673,3673,3673,3673,3673,3673,3673,3673,3673,3673,3673,0,
0,3673,3673,3673,3673,3673,3673,3673,3673,3673,3673,3673,3673,3673,3673,3673,3673,3673,3673,0,
0,3673,3673,3673,3673,3673,3673,3673,3673,3673,3673,3673,3673,3673,3673,3673,3673,3673,3673,0,
0,3673,3673,3673,3673,3673,3673,3673,3673,3673,3673,0,0,0,0,0,0,0,0,0,
0,0,0,0,0,0,3673,3673,3673,0,0,0,0,0,0,0,0,0,0,0,
0,0,0,0,0,0,3673,3673,3673,0,0,0,0,0,0,0,0,0,0,0
</data>
 </layer>
 <layer id="2" name="Muros" width="20" height="20">
  <data encoding="csv">
900,3724,3724,3724,3724,3724,3724,3724,587,0,0,829,3268,3268,3268,3268,3268,3268,3268,902,
976,3800,3800,3800,3800,3800,3800,3800,3726,0,0,3270,3344,3344,3344,3344,3344,3344,3344,978,
976,0,0,0,0,0,0,0,3802,0,0,3346,0,0,0,0,0,0,0,978,
976,0,0,0,0,0,0,0,0,0,0,0,0,0,0,0,0,0,0,978,
976,0,0,0,0,0,0,0,0,0,0,973,0,0,0,0,0,0,0,978,
976,3116,3116,3116,3116,3116,3116,3116,827,0,0,830,3268,3268,3268,3268,3268,3268,3268,978,
976,3192,3192,3192,3192,3192,3192,3192,904,0,0,3270,3344,3344,3344,3344,3344,3344,3344,978,
976,0,0,0,0,0,0,0,904,0,0,3346,0,0,0,0,0,0,0,978,
976,0,0,0,0,0,0,0,904,0,0,0,0,0,0,0,0,0,0,978,
976,0,0,0,0,0,0,0,904,0,0,972,0,0,0,0,0,0,0,978,
976,0,0,0,0,0,0,0,904,0,0,1048,1053,1053,1053,1053,1053,1053,1053,1054,
976,0,0,0,0,0,0,0,904,0,0,978,900,3116,3116,3116,3116,3116,3116,902,
976,3268,3269,0,3267,3268,3268,3268,3269,0,0,3115,3117,3192,3192,3192,3192,3192,3192,978,
976,3344,3345,0,3343,3344,3344,3344,3345,0,0,3191,3193,0,0,0,0,0,0,978,
976,0,0,0,0,0,0,0,0,0,0,0,0,0,0,0,0,0,0,978,
976,0,0,0,0,0,0,0,0,0,0,0,0,0,0,0,0,0,0,978,
976,0,0,0,0,0,0,0,0,0,0,0,0,0,0,0,0,0,0,978,
976,0,0,0,0,0,0,0,0,0,0,899,901,901,901,901,901,901,901,1054,
1052,1053,1053,1053,1053,898,0,0,0,899,901,1054,0,0,0,0,0,0,0,0,
0,0,0,0,0,976,0,0,0,978,0,0,0,0,0,0,0,0,0,0
</data>
 </layer>
 <objectgroup id="3" name="ysort">
  <object id="1" gid="69" x="32" y="480" width="32" height="64"/>
  <object id="5" gid="2" x="32" y="512" width="32" height="48"/>
  <object id="6" gid="2" x="64" y="512" width="32" height="48"/>
  <object id="7" gid="2" x="128" y="512" width="32" height="48"/>
  <object id="8" gid="2" x="96" y="512" width="32" height="48"/>
  <object id="9" gid="2" x="160" y="512" width="32" height="48"/>
  <object id="10" gid="2" x="192" y="512" width="32" height="48"/>
  <object id="11" gid="4" x="224" y="512" width="32" height="80"/>
  <object id="12" gid="5" x="160" y="512" width="64" height="64"/>
  <object id="13" gid="5" x="96" y="512" width="64" height="64"/>
  <object id="14" gid="6" x="224" y="512" width="32" height="96"/>
  <object id="15" gid="50" x="64" y="448" width="32" height="48"/>
  <object id="16" gid="52" x="128" y="448" width="32" height="48"/>
  <object id="17" gid="51" x="224" y="416" width="32" height="16"/>
  <object id="19" gid="49" x="160" y="448" width="64" height="64"/>
  <object id="20" gid="92" x="64" y="480" width="32" height="48"/>
  <object id="34" gid="107" x="416" y="448" width="64" height="80"/>
  <object id="35" gid="110" x="416" y="544" width="64" height="32"/>
  <object id="36" gid="98" x="480" y="448" width="32" height="48"/>
  <object id="37" gid="98" x="544" y="448" width="32" height="48"/>
  <object id="38" gid="92" x="576" y="448" width="32" height="48"/>
  <object id="39" gid="96" x="576" y="480" width="32" height="48"/>
  <object id="40" gid="91" x="576" y="512" width="32" height="48"/>
  <object id="41" gid="96" x="576" y="544" width="32" height="48"/>
  <object id="42" gid="101" x="544" y="544" width="32" height="32"/>
  <object id="43" gid="95" x="512" y="544" width="32" height="32"/>
  <object id="44" gid="101" x="480" y="544" width="32" height="32"/>
  <object id="50" gid="123" x="512" y="416" width="64" height="48"/>
  <object id="51" gid="51" x="576" y="384" width="32" height="16"/>
  <object id="52" gid="69" x="256" y="480" width="32" height="64"/>
  <object id="53" gid="171" x="32" y="224" width="32" height="64"/>
  <object id="54" gid="55" x="64" y="256" width="32" height="64"/>
  <object id="55" gid="64" x="96" y="256" width="32" height="80"/>
  <object id="56" gid="62" x="128" y="256" width="32" height="80"/>
  <object id="57" gid="105" x="160" y="256" width="64" height="80"/>
  <object id="58" gid="64" x="224" y="256" width="32" height="80"/>
  <object id="59" gid="66" x="224" y="288" width="32" height="96"/>
  <object id="60" gid="59" x="192" y="352" width="64" height="96"/>
  <object id="63" gid="92" x="192" y="352" width="32" height="48"/>
  <object id="64" gid="67" x="32" y="288" width="32" height="96"/>
  <object id="65" gid="60" x="32" y="352" width="64" height="96"/>
  <object id="67" gid="199" x="32" y="128" width="64" height="96"/>
  <object id="68" gid="199" x="160" y="128" width="64" height="96"/>
  <object id="69" gid="192" x="96" y="96" width="64" height="80"/>
  <object id="74" gid="182" x="544" y="128" width="64" height="96"/>
  <object id="75" gid="181" x="544" y="288" width="64" height="96"/>
  <object id="76" gid="178" x="416" y="128" width="64" height="96"/>
  <object id="77" gid="183" x="416" y="288" width="64" height="96"/>
  <object id="78" gid="187" x="416" y="288" width="64" height="64"/>
  <object id="79" gid="188" x="544" y="288" width="64" height="64"/>
  <object id="80" gid="154" x="512" y="96" width="32" height="64"/>
  <object id="81" gid="151" x="512" y="256" width="32" height="64"/>
  <object id="82" gid="142" x="384" y="256" width="32" height="64"/>
  <object id="83" gid="143" x="384" y="96" width="32" height="64"/>
  <object id="84" gid="171" x="384" y="64" width="32" height="64"/>
  <object id="85" gid="168" x="512" y="64" width="64" height="64"/>
  <object id="86" gid="191" x="544" y="192" width="64" height="16"/>
  <object id="87" gid="190" x="416" y="32" width="64" height="16"/>
  <object id="88" gid="129" x="512" y="512" width="64" height="64"/>
  <object id="91" gid="9313" x="512" y="448" width="32" height="32"/>
  <object id="92" gid="9297" x="512" y="416" width="32" height="32"/>
  <object id="93" gid="9280" x="352" y="480" width="32" height="32"/>
  <object id="94" gid="9281" x="384" y="480" width="32" height="32"/>
  <object id="95" gid="9264" x="352" y="448" width="32" height="32"/>
  <object id="96" gid="9265" x="384" y="448" width="32" height="32"/>
  <object id="97" gid="9248" x="352" y="416" width="32" height="32"/>
  <object id="98" gid="9249" x="384" y="416" width="32" height="32"/>
  <object id="99" gid="9389" x="480" y="192" width="32" height="32"/>
  <object id="100" gid="9405" x="480" y="224" width="32" height="32"/>
  <object id="101" gid="9421" x="480" y="256" width="32" height="32"/>
  <object id="102" gid="9437" x="480" y="288" width="32" height="32"/>
  <object id="103" gid="9453" x="480" y="32" width="32" height="32"/>
  <object id="104" gid="9469" x="480" y="64" width="32" height="32"/>
  <object id="105" gid="9485" x="480" y="96" width="32" height="32"/>
  <object id="106" gid="9501" x="480" y="128" width="32" height="32"/>
  <object id="107" gid="9175" x="32" y="352" width="32" height="32"/>
  <object id="108" gid="9191" x="32" y="384" width="32" height="32"/>
  <object id="109" gid="9176" x="224" y="352" width="32" height="32"/>
  <object id="110" gid="9192" x="224" y="384" width="32" height="32"/>
  <object id="111" gid="9167" x="205" y="384" width="32" height="32"/>
  <object id="112" gid="9215" x="32" y="576" width="32" height="32"/>
  <object id="113" gid="9199" x="32" y="544" width="32" height="32"/>
  <object id="114" gid="9215" x="320" y="576" width="32" height="32"/>
  <object id="115" gid="9199" x="320" y="544" width="32" height="32"/>
  <object id="116" gid="9354" x="186.125" y="517.125" width="32" height="32"/>
  <object id="117" gid="9355" x="218.094" y="517.125" width="32" height="32"/>
 </objectgroup>
 <objectgroup id="4" name="Capa de Objetos 2">
  <object id="22" gid="40" x="32" y="480" width="32" height="32"/>
  <object id="24" gid="47" x="64" y="480" width="32" height="32"/>
  <object id="25" gid="45" x="224" y="480" width="32" height="32"/>
  <object id="90" gid="9293" x="512" y="480" width="32" height="32"/>
 </objectgroup>
</map>
